app/images/icons/work-2.svg

<svg xmlns="http://www.w3.org/2000/svg" fill="none" viewBox="0 0 50 50"><defs/><path fill="#CA6D38" d="M24.2188 18.75c0 .2072.0823.4059.2288.5524.1465.1465.3452.2288.5524.2288s.4059-.0823.5524-.2288c.1465-.1465.2288-.3452.2288-.5524v-1.5625c0-.2072-.0823-.4059-.2288-.5524-.1465-.1465-.3452-.2289-.5524-.2289s-.4059.0824-.5524.2289c-.1465.1465-.2288.3452-.2288.5524V18.75zM25 20.3125c-.2072 0-.4059.0823-.5524.2288-.1465.1465-.2288.3452-.2288.5525v1.5624c0 .2073.0823.406.2288.5525.1465.1465.3452.2288.5524.2288s.4059-.0823.5524-.2288c.1465-.1465.2288-.3452.2288-.5525v-1.5624c0-.2073-.0823-.406-.2288-.5525-.1465-.1465-.3452-.2288-.5524-.2288zM29.6663 32.0312l-1.4045-.6859c-.0924-.0465-.193-.0741-.2961-.0814-.1031-.0073-.2067.006-.3046.039-.098.0331-.1884.0852-.266.1535-.0777.0682-.141.1512-.1864.2441-.0453.0929-.0718.1938-.0778.297-.0061.1032.0084.2066.0426.3041.0342.0976.0874.1874.1566.2642.0691.0768.1528.1392.2462.1835l1.404.6854c.0925.0476.1935.0762.2971.0842.1037.0081.2079-.0047.3065-.0374.0987-.0328.1898-.0849.2681-.1533.0782-.0684.1421-.1517.1877-.2451.0456-.0934.0722-.195.0781-.2988.0059-.1038-.009-.2077-.0438-.3056-.0348-.098-.0887-.188-.1587-.2649-.0701-.0768-.1547-.1389-.249-.1826zM33.1766 33.7446l-1.4041-.6855c-.0922-.045-.1924-.0715-.2948-.0778-.1024-.0063-.2051.0077-.3021.041-.196.0674-.3571.2099-.448.3961-.0909.1862-.1041.4009-.0368.5968.0674.196.2099.3572.3961.4481l1.4041.6855c.1862.0909.4009.1041.5969.0368.1959-.0674.3571-.2099.448-.3961.0909-.1862.1041-.4009.0367-.5969-.0674-.1959-.2098-.3571-.396-.448zM36.6868 35.4591l-1.4042-.6856c-.0922-.045-.1923-.0714-.2947-.0777-.1024-.0063-.2051.0076-.3021.041-.196.0674-.3571.2099-.448.3961-.0909.1862-.1041.4009-.0368.5968.0674.196.2099.3571.3961.448l1.4041.6856c.1862.0909.4009.1041.5969.0367.1959-.0674.3571-.2098.448-.396.0909-.1862.1041-.4009.0367-.5969-.0674-.1959-.2098-.3571-.396-.448z"/><path fill="#CA6D38" d="M48.7872 41.4893l-7.3809-3.6944V17.9688c0-.1452-.0404-.2874-.1166-.4109-.0763-.1235-.1853-.2233-.3151-.2884L25.7813 9.67383V4.6875c0-.2072-.0823-.40591-.2288-.55243-.1465-.14651-.3453-.22882-.5525-.22882s-.4059.08231-.5524.22882c-.1465.14652-.2288.34523-.2288.55243v4.98633L9.02543 17.2695c-.12972.0651-.23879.1649-.31501.2884-.07623.1235-.11661.2657-.11663.4109v19.8623l-7.37793 3.6562c-.09195.0455-.17404.1087-.241564.186-.06753.0772-.119182.167-.152009.2642-.032827.0972-.046186.2-.039313.3023.006873.1024.033843.2024.07937.2944.045526.0919.108718.174.185966.2415.07725.0676.16704.1192.26426.152.09721.0329.19993.0462.30231.0394.10237-.0069.20239-.0339.29434-.0794l7.49902-3.7168L24.6504 46.793c.1087.0539.2283.082.3496.082.1213 0 .241-.0281.3496-.082l15.2793-7.6397 7.459 3.7324c.1081.0547.2275.0831.3487.0831.1759 0 .3466-.0593.4846-.1684.138-.1091.2351-.2616.2757-.4328.0406-.1711.0222-.351-.0522-.5104-.0744-.1594-.2003-.289-.3575-.3679zm-24.5684 3.3408l-13.0567-6.5283.8331-.4131c.0939-.0444.1781-.107.2475-.1843.0695-.0772.1228-.1675.157-.2657.0341-.0981.0483-.202.0418-.3057-.0066-.1037-.0337-.205-.0799-.2981-.0462-.0931-.1105-.176-.1891-.2439-.0786-.0679-.1699-.1195-.2687-.1517-.0988-.0322-.203-.0443-.3065-.0357-.1036.0085-.2043.0377-.2965.0857l-1.1445.5673V19.2324l14.0625 7.0313v18.5664zM25 24.9082l-13.8779-6.9394 13.0967-6.5489v3.4239c0 .2072.0823.4059.2288.5524.1465.1465.3452.2288.5524.2288s.406-.0823.5525-.2288c.1465-.1465.2288-.3452.2288-.5524v-3.4239l13.0967 6.5489L25 24.9082zm14.8438 12.1045l-1.044-.5225c-.1853-.0927-.3998-.108-.5964-.0425-.1966.0654-.3592.2063-.4519.3917-.0927.1853-.108.3998-.0425.5964.0654.1966.2063.3592.3916.4519l.7823.3916-13.1016 6.5508V26.2637l14.0625-7.0313v17.7803z"/><path fill="#CA6D38" d="M20.7747 33.5142c.1185-.0001.2355-.0273.3418-.0795l1.404-.6854c.0935-.0443.1772-.1067.2463-.1835.0692-.0768.1224-.1666.1566-.2642.0342-.0975.0487-.2009.0426-.3041-.006-.1032-.0325-.2041-.0779-.297-.0453-.0929-.1086-.1759-.1863-.2441-.0776-.0683-.1681-.1204-.266-.1535-.0979-.033-.2015-.0463-.3046-.039-.1031.0073-.2038.0349-.2961.0814l-1.4036.6859c-.1589.0774-.2868.2065-.3629.366-.076.1595-.0957.3402-.0559.5123.0398.1722.1369.3258.2753.4358.1384.1099.31.1696.4867.1694v-.0005zM17.2646 35.2281c.1185-.0001.2354-.0272.3418-.0793l1.4041-.6855c.1862-.0909.3287-.2521.396-.4481.0674-.1959.0542-.4106-.0367-.5968-.0909-.1862-.2521-.3287-.448-.3961-.196-.0674-.4107-.0541-.5969.0368l-1.4041.6855c-.1588.0775-.2868.2065-.3628.3661-.0761.1595-.0958.3401-.0559.5123.0398.1722.1369.3258.2753.4357s.31.1696.4868.1694h.0004zM13.7545 36.9421c.1185-.0002.2353-.0273.3418-.0793l1.4041-.6855c.1862-.091.3287-.2521.396-.4481.0674-.1959.0542-.4106-.0367-.5968-.0909-.1862-.2521-.3287-.448-.3961-.196-.0674-.4107-.0542-.5969.0368l-1.4041.6855c-.1588.0775-.2868.2065-.3628.366-.0761.1596-.0958.3402-.0559.5124.0398.1722.1369.3258.2753.4357s.31.1696.4868.1694h.0004z"/></svg>

<svg width="50" height="50" viewBox="0 0 50 50" fill="none" xmlns="http://www.w3.org/2000/svg">
<path d="M24.2188 18.75C24.2188 18.9572 24.3011 19.1559 24.4476 19.3024C24.5941 19.4489 24.7928 19.5312 25 19.5312C25.2072 19.5312 25.4059 19.4489 25.5524 19.3024C25.6989 19.1559 25.7812 18.9572 25.7812 18.75V17.1875C25.7812 16.9803 25.6989 16.7816 25.5524 16.6351C25.4059 16.4886 25.2072 16.4062 25 16.4062C24.7928 16.4062 24.5941 16.4886 24.4476 16.6351C24.3011 16.7816 24.2188 16.9803 24.2188 17.1875V18.75Z" fill="#CA6D38"/>
<path d="M25 20.3125C24.7928 20.3125 24.5941 20.3948 24.4476 20.5413C24.3011 20.6878 24.2188 20.8865 24.2188 21.0938V22.6562C24.2188 22.8635 24.3011 23.0622 24.4476 23.2087C24.5941 23.3552 24.7928 23.4375 25 23.4375C25.2072 23.4375 25.4059 23.3552 25.5524 23.2087C25.6989 23.0622 25.7812 22.8635 25.7812 22.6562V21.0938C25.7812 20.8865 25.6989 20.6878 25.5524 20.5413C25.4059 20.3948 25.2072 20.3125 25 20.3125Z" fill="#CA6D38"/>
<path d="M29.6663 32.0312L28.2618 31.3453C28.1694 31.2988 28.0688 31.2712 27.9657 31.2639C27.8626 31.2566 27.759 31.2699 27.6611 31.3029C27.5631 31.336 27.4727 31.3881 27.3951 31.4564C27.3174 31.5246 27.2541 31.6076 27.2087 31.7005C27.1634 31.7934 27.1369 31.8943 27.1309 31.9975C27.1248 32.1007 27.1393 32.2041 27.1735 32.3016C27.2077 32.3992 27.2609 32.489 27.3301 32.5658C27.3992 32.6426 27.4829 32.705 27.5763 32.7493L28.9803 33.4347C29.0728 33.4823 29.1738 33.5109 29.2774 33.5189C29.3811 33.527 29.4853 33.5142 29.5839 33.4815C29.6826 33.4487 29.7737 33.3966 29.852 33.3282C29.9302 33.2598 29.9941 33.1765 30.0397 33.0831C30.0853 32.9897 30.1119 32.8881 30.1178 32.7843C30.1237 32.6805 30.1088 32.5766 30.074 32.4787C30.0392 32.3807 29.9853 32.2907 29.9153 32.2138C29.8452 32.137 29.7606 32.0749 29.6663 32.0312Z" fill="#CA6D38"/>
<path d="M33.1766 33.7446L31.7725 33.0591C31.6803 33.0141 31.5801 32.9876 31.4777 32.9813C31.3753 32.975 31.2726 32.989 31.1756 33.0223C30.9796 33.0897 30.8185 33.2322 30.7276 33.4184C30.6367 33.6046 30.6235 33.8193 30.6908 34.0152C30.7582 34.2112 30.9007 34.3724 31.0869 34.4633L32.491 35.1488C32.6772 35.2397 32.8919 35.2529 33.0879 35.1856C33.2838 35.1182 33.445 34.9757 33.5359 34.7895C33.6268 34.6033 33.64 34.3886 33.5726 34.1926C33.5052 33.9967 33.3628 33.8355 33.1766 33.7446Z" fill="#CA6D38"/>
<path d="M36.6868 35.4591L35.2826 34.7735C35.1904 34.7285 35.0903 34.7021 34.9879 34.6958C34.8855 34.6895 34.7828 34.7034 34.6858 34.7368C34.4898 34.8042 34.3287 34.9467 34.2378 35.1329C34.1469 35.3191 34.1337 35.5338 34.201 35.7297C34.2684 35.9257 34.4109 36.0868 34.5971 36.1777L36.0012 36.8633C36.1874 36.9542 36.4021 36.9674 36.5981 36.9C36.794 36.8326 36.9552 36.6902 37.0461 36.504C37.137 36.3178 37.1502 36.1031 37.0828 35.9071C37.0154 35.7112 36.873 35.55 36.6868 35.4591Z" fill="#CA6D38"/>
<path d="M48.7872 41.4893L41.4063 37.7949V17.9688C41.4063 17.8236 41.3659 17.6814 41.2897 17.5579C41.2134 17.4344 41.1044 17.3346 40.9746 17.2695L25.7813 9.67383V4.6875C25.7813 4.4803 25.699 4.28159 25.5525 4.13507C25.406 3.98856 25.2072 3.90625 25 3.90625C24.7928 3.90625 24.5941 3.98856 24.4476 4.13507C24.3011 4.28159 24.2188 4.4803 24.2188 4.6875V9.67383L9.02543 17.2695C8.89571 17.3346 8.78664 17.4344 8.71042 17.5579C8.63419 17.6814 8.59381 17.8236 8.59379 17.9688V37.8311L1.21586 41.4873C1.12391 41.5328 1.04182 41.596 0.974296 41.6733C0.906766 41.7505 0.855114 41.8403 0.822287 41.9375C0.78946 42.0347 0.776101 42.1375 0.782974 42.2398C0.789847 42.3422 0.816817 42.4422 0.862344 42.5342C0.90787 42.6261 0.971062 42.7082 1.04831 42.7757C1.12556 42.8433 1.21535 42.8949 1.31257 42.9277C1.40978 42.9606 1.5125 42.9739 1.61488 42.9671C1.71725 42.9602 1.81727 42.9332 1.90922 42.8877L9.40824 39.1709L24.6504 46.793C24.7591 46.8469 24.8787 46.875 25 46.875C25.1213 46.875 25.241 46.8469 25.3496 46.793L40.6289 39.1533L48.0879 42.8857C48.196 42.9404 48.3154 42.9688 48.4366 42.9688C48.6125 42.9688 48.7832 42.9095 48.9212 42.8004C49.0592 42.6913 49.1563 42.5388 49.1969 42.3676C49.2375 42.1965 49.2191 42.0166 49.1447 41.8572C49.0703 41.6978 48.9444 41.5682 48.7872 41.4893ZM24.2188 44.8301L11.1621 38.3018L11.9952 37.8887C12.0891 37.8443 12.1733 37.7817 12.2427 37.7044C12.3122 37.6272 12.3655 37.5369 12.3997 37.4387C12.4338 37.3406 12.448 37.2367 12.4415 37.133C12.4349 37.0293 12.4078 36.928 12.3616 36.8349C12.3154 36.7418 12.2511 36.6589 12.1725 36.591C12.0939 36.5231 12.0026 36.4715 11.9038 36.4393C11.805 36.4071 11.7008 36.395 11.5973 36.4036C11.4937 36.4121 11.393 36.4413 11.3008 36.4893L10.1563 37.0566V19.2324L24.2188 26.2637V44.8301ZM25 24.9082L11.1221 17.9688L24.2188 11.4199V14.8438C24.2188 15.051 24.3011 15.2497 24.4476 15.3962C24.5941 15.5427 24.7928 15.625 25 15.625C25.2072 15.625 25.406 15.5427 25.5525 15.3962C25.699 15.2497 25.7813 15.051 25.7813 14.8438V11.4199L38.878 17.9688L25 24.9082ZM39.8438 37.0127L38.7998 36.4902C38.6145 36.3975 38.4 36.3822 38.2034 36.4477C38.0068 36.5131 37.8442 36.654 37.7515 36.8394C37.6588 37.0247 37.6435 37.2392 37.709 37.4358C37.7744 37.6324 37.9153 37.795 38.1006 37.8877L38.8829 38.2793L25.7813 44.8301V26.2637L39.8438 19.2324V37.0127Z" fill="#CA6D38"/>
<path d="M20.7747 33.5142C20.8932 33.5141 21.0102 33.4869 21.1165 33.4347L22.5205 32.7493C22.614 32.705 22.6977 32.6426 22.7668 32.5658C22.836 32.489 22.8892 32.3992 22.9234 32.3016C22.9576 32.2041 22.9721 32.1007 22.966 31.9975C22.96 31.8943 22.9335 31.7934 22.8881 31.7005C22.8428 31.6076 22.7795 31.5246 22.7018 31.4564C22.6242 31.3881 22.5337 31.336 22.4358 31.3029C22.3379 31.2699 22.2343 31.2566 22.1312 31.2639C22.0281 31.2712 21.9274 31.2988 21.8351 31.3453L20.4315 32.0312C20.2726 32.1086 20.1447 32.2377 20.0686 32.3972C19.9926 32.5567 19.9729 32.7374 20.0127 32.9095C20.0525 33.0817 20.1496 33.2353 20.288 33.3453C20.4264 33.4552 20.598 33.5149 20.7747 33.5147V33.5142Z" fill="#CA6D38"/>
<path d="M17.2646 35.2281C17.3831 35.228 17.5 35.2009 17.6064 35.1488L19.0105 34.4633C19.1967 34.3724 19.3392 34.2112 19.4065 34.0152C19.4739 33.8193 19.4607 33.6046 19.3698 33.4184C19.2789 33.2322 19.1177 33.0897 18.9218 33.0223C18.7258 32.9549 18.5111 32.9682 18.3249 33.0591L16.9208 33.7446C16.762 33.8221 16.634 33.9511 16.558 34.1107C16.4819 34.2702 16.4622 34.4508 16.5021 34.623C16.5419 34.7952 16.639 34.9488 16.7774 35.0587C16.9158 35.1686 17.0874 35.2283 17.2642 35.2281H17.2646Z" fill="#CA6D38"/>
<path d="M13.7545 36.9421C13.873 36.9419 13.9898 36.9148 14.0963 36.8628L15.5004 36.1773C15.6866 36.0863 15.8291 35.9252 15.8964 35.7292C15.9638 35.5333 15.9506 35.3186 15.8597 35.1324C15.7688 34.9462 15.6076 34.8037 15.4117 34.7363C15.2157 34.6689 15.001 34.6821 14.8148 34.7731L13.4107 35.4586C13.2519 35.5361 13.1239 35.6651 13.0479 35.8246C12.9718 35.9842 12.9521 36.1648 12.992 36.337C13.0318 36.5092 13.1289 36.6628 13.2673 36.7727C13.4057 36.8826 13.5773 36.9423 13.7541 36.9421H13.7545Z" fill="#CA6D38"/>
</svg>
